Papirus/64x64/mimetypes/text-vnd.wap.wmlscript.svg

<?xml version="1.0" encoding="UTF-8" standalone="no"?>
<svg
   id="_图层_1"
   data-name="图层_1"
   version="1.1"
   viewBox="0 0 128 128"
   width="64"
   height="64"
   sodipodi:docname="text-vnd.wap.wmlscript.svg"
   xml:space="preserve"
   inkscape:version="1.4 (e7c3feb100, 2024-10-09)"
   xmlns:inkscape="http://www.inkscape.org/namespaces/inkscape"
   xmlns:sodipodi="http://sodipodi.sourceforge.net/DTD/sodipodi-0.dtd"
   xmlns="http://www.w3.org/2000/svg"
   xmlns:svg="http://www.w3.org/2000/svg"><sodipodi:namedview
     id="namedview3"
     pagecolor="#505050"
     bordercolor="#eeeeee"
     borderopacity="1"
     inkscape:showpageshadow="0"
     inkscape:pageopacity="0"
     inkscape:pagecheckerboard="0"
     inkscape:deskcolor="#505050"
     inkscape:zoom="10.6875"
     inkscape:cx="32"
     inkscape:cy="18.71345"
     inkscape:window-width="1920"
     inkscape:window-height="939"
     inkscape:window-x="0"
     inkscape:window-y="34"
     inkscape:window-maximized="1"
     inkscape:current-layer="_图层_1"
     showguides="true"><sodipodi:guide
       position="7.6134526,83.439664"
       orientation="1,0"
       id="guide7"
       inkscape:locked="false" /><sodipodi:guide
       position="120.24109,71.856006"
       orientation="1,0"
       id="guide8"
       inkscape:locked="false" /></sodipodi:namedview><!-- Generator: Adobe Illustrator 29.0.1, SVG Export Plug-In . SVG Version: 2.1.0 Build 192)  --><defs
     id="defs1"><style
       id="style1">
      .st0 {
        fill: #0071e9;
      }

      .st1 {
        fill: #fff;
      }

      .st2 {
        fill: #5aaaff;
        isolation: isolate;
        opacity: .5;
      }
    </style></defs><path
     class="st0"
     d="M18.2,0c-5.6,0-10.2,4.6-10.2,10.2v107.6c0,5.6,4.6,10.2,10.2,10.2h91.6c5.6,0,10.2-4.6,10.2-10.2V40.6L82.2,0H18.2Z"
     id="path1"
     style="fill:#989898;fill-opacity:1" /><path
     class="st2"
     d="m 82.761404,2.619883 v 29.2 c 0,3.2 2.145542,11.6 11.89801,11.6 h 24.966316 z"
     id="path2"
     style="fill:#7a7a7a;fill-opacity:1;stroke-width:0.987546" /><path
     class="st2"
     d="M 82.116964,0.02339171 V 29.223392 c 0,3.2 2.2,11.6 12.2,11.6 h 25.599996 z"
     id="path2-3"
     style="opacity:1;isolation:isolate;fill:#b7b7b7;fill-opacity:1" /><g
     id="g8"
     transform="matrix(2.5571505,0,0,2.3053247,-17.922382,-9.5429363)"><path
       style="opacity:0.2;fill-rule:evenodd"
       d="m 24.642578,29.002248 a 1.365308,1.4042805 0 0 0 -0.128906,0.0039 1.365308,1.4042805 0 0 0 -0.361328,0.07617 c 0,0 -0.854001,0.28979 -1.84375,0.826172 -0.991115,0.536382 -2.194697,1.285218 -2.96875,2.574219 -0.861423,1.433627 -0.535152,2.96841 -0.267578,3.886719 0.268938,0.916904 0.41643,1.319984 0.167968,1.933593 -0.120134,0.300486 -0.860376,0.956631 -1.669922,1.365235 -0.810911,0.408605 -1.546874,0.623046 -1.546874,0.623046 a 1.365308,1.4042805 0 0 0 -0.976563,1.72461 1.365308,1.4042805 0 0 0 0.976563,1.6875 c 0,0 0.735962,0.214442 1.546874,0.623047 0.809547,0.407201 1.549788,1.064749 1.669922,1.365234 0.248462,0.615013 0.10097,1.015286 -0.167968,1.933594 -0.267574,0.918307 -0.593845,2.451687 0.267578,3.886719 0.774053,1.287596 1.977635,2.037836 2.96875,2.574218 0.989749,0.534977 1.84375,0.826172 1.84375,0.826172 a 1.365308,1.4042805 0 1 0 0.859375,-2.664062 c 0,0 -0.649398,-0.222434 -1.431641,-0.646485 -0.782244,-0.422646 -1.619186,-1.077459 -1.914062,-1.570312 -0.334468,-0.557443 -0.225027,-0.74925 0.02344,-1.601563 0.249827,-0.852313 0.698107,-2.265137 0.07422,-3.8125 -0.551529,-1.37044 -1.653606,-2.097349 -2.640625,-2.621093 0.987019,-0.52234 2.089096,-1.2487 2.640625,-2.619141 0.623883,-1.547362 0.175603,-2.96214 -0.07422,-3.814453 -0.248461,-0.852314 -0.357902,-1.045524 -0.02344,-1.601563 0.294876,-0.492853 1.131818,-1.144309 1.914062,-1.568359 0.782243,-0.422646 1.431641,-0.646484 1.431641,-0.646484 A 1.365308,1.4042805 0 0 0 24.642578,29.00224 Z m 14.708984,0 a 1.3653073,1.404279 0 0 0 -0.363281,2.744141 c 0,0 0.649399,0.223839 1.431641,0.646484 0.782243,0.424051 1.619775,1.075506 1.916016,1.568359 0.334466,0.556039 0.223067,0.74925 -0.02539,1.601563 -0.248461,0.852312 -0.696741,2.267093 -0.07422,3.814453 0.552894,1.37044 1.653607,2.096801 2.640625,2.619141 -0.987018,0.523744 -2.087731,1.250654 -2.640625,2.621093 -0.622518,1.547361 -0.174238,2.960188 0.07422,3.8125 0.248461,0.852312 0.35986,1.046073 0.02539,1.603516 -0.296242,0.492852 -1.133773,1.145713 -1.916016,1.568359 -0.782242,0.42405 -1.431641,0.646485 -1.431641,0.646485 a 1.3653073,1.404279 0 1 0 0.859375,2.664062 c 0,0 0.855954,-0.291195 1.845703,-0.826172 0.989749,-0.536381 2.192746,-1.286623 2.966797,-2.574218 0.861423,-1.435029 0.535151,-2.968413 0.267578,-3.886719 -0.267574,-0.918307 -0.415063,-1.318582 -0.167968,-1.933594 0.121501,-0.300486 0.860964,-0.958033 1.671875,-1.365234 0.809547,-0.408604 1.544922,-0.623047 1.544921,-0.623047 a 1.3653073,1.404279 0 0 0 0.976563,-1.6875 1.3653073,1.404279 0 0 0 -0.976563,-1.72461 c 0,0 -0.735374,-0.214442 -1.544921,-0.623046 -0.810911,-0.408604 -1.550374,-1.06475 -1.671875,-1.365235 -0.247095,-0.613609 -0.09961,-1.016692 0.167968,-1.933593 0.267573,-0.918307 0.593845,-2.453094 -0.267578,-3.886719 -0.774051,-1.289 -1.977048,-2.037839 -2.966797,-2.574219 -0.989749,-0.536382 -1.845703,-0.826172 -1.845703,-0.826172 a 1.3653073,1.404279 0 0 0 -0.359375,-0.07617 1.3653073,1.404279 0 0 0 -0.130859,-0.0039 1.3653073,1.404279 0 0 0 -0.0059,0 z m -7.351562,6 a 3.0000002,3.0000002 0 0 0 -3,3 3.0000002,3.0000002 0 0 0 3,3 3.0000002,3.0000002 0 0 0 3,-3 3.0000002,3.0000002 0 0 0 -3,-3 z m 0,7.976562 c -1.6575,0 -3,1.3425 -3,3 0,1.6575 1.3425,3 3,3 1.0605,0 1.5,3 1.5,3 0,0 1.5,-5.403001 1.5,-6 0,-1.6575 -1.342499,-3 -3,-3 z"
       id="path6" /><path
       style="fill:#ffffff;fill-rule:evenodd"
       d="m 24.642578,28 a 1.365308,1.4042805 0 0 0 -0.128906,0.0039 1.365308,1.4042805 0 0 0 -0.361328,0.07617 c 0,0 -0.854001,0.28979 -1.84375,0.826172 -0.991115,0.536382 -2.194697,1.285218 -2.96875,2.574219 -0.861423,1.433627 -0.535152,2.96841 -0.267578,3.886719 0.268938,0.916904 0.41643,1.319984 0.167968,1.933593 -0.120134,0.300486 -0.860376,0.956631 -1.669922,1.365235 -0.810911,0.408605 -1.546874,0.623046 -1.546874,0.623046 a 1.365308,1.4042805 0 0 0 -0.976563,1.72461 1.365308,1.4042805 0 0 0 0.976563,1.6875 c 0,0 0.735962,0.214442 1.546874,0.623047 0.809547,0.407201 1.549788,1.064749 1.669922,1.365234 0.248462,0.615013 0.10097,1.015286 -0.167968,1.933594 -0.267574,0.918307 -0.593845,2.451687 0.267578,3.886719 0.774053,1.287596 1.977635,2.037836 2.96875,2.574218 0.989749,0.534977 1.84375,0.826172 1.84375,0.826172 a 1.365308,1.4042805 0 1 0 0.859375,-2.664062 c 0,0 -0.649398,-0.222434 -1.431641,-0.646485 -0.782244,-0.422646 -1.619186,-1.077459 -1.914062,-1.570312 -0.334468,-0.557443 -0.225027,-0.74925 0.02344,-1.601563 0.249827,-0.852313 0.698107,-2.265137 0.07422,-3.8125 -0.551529,-1.37044 -1.653606,-2.097349 -2.640625,-2.621093 0.987019,-0.52234 2.089096,-1.2487 2.640625,-2.619141 0.623883,-1.547362 0.175603,-2.96214 -0.07422,-3.814453 -0.248461,-0.852314 -0.357902,-1.045524 -0.02344,-1.601563 0.294876,-0.492853 1.131818,-1.144309 1.914062,-1.568359 0.782243,-0.422646 1.431641,-0.646484 1.431641,-0.646484 A 1.365308,1.4042805 0 0 0 24.642578,28 Z m 14.708984,0 a 1.3653073,1.404279 0 0 0 -0.363281,2.744141 c 0,0 0.649399,0.223839 1.431641,0.646484 0.782243,0.424051 1.619775,1.075506 1.916016,1.568359 0.334466,0.556039 0.223067,0.74925 -0.02539,1.601563 -0.248461,0.852312 -0.696741,2.267093 -0.07422,3.814453 0.552894,1.37044 1.653607,2.096801 2.640625,2.619141 -0.987018,0.523744 -2.087731,1.250654 -2.640625,2.621093 -0.622518,1.547361 -0.174238,2.960188 0.07422,3.8125 0.248461,0.852312 0.35986,1.046073 0.02539,1.603516 -0.296242,0.492852 -1.133773,1.145713 -1.916016,1.568359 -0.782242,0.42405 -1.431641,0.646485 -1.431641,0.646485 a 1.3653073,1.404279 0 1 0 0.859375,2.664062 c 0,0 0.855954,-0.291195 1.845703,-0.826172 0.989749,-0.536381 2.192746,-1.286623 2.966797,-2.574218 0.861423,-1.435029 0.535151,-2.968413 0.267578,-3.886719 -0.267574,-0.918307 -0.415063,-1.318582 -0.167968,-1.933594 0.121501,-0.300486 0.860964,-0.958033 1.671875,-1.365234 0.809547,-0.408604 1.544922,-0.623047 1.544921,-0.623047 a 1.3653073,1.404279 0 0 0 0.976563,-1.6875 1.3653073,1.404279 0 0 0 -0.976563,-1.72461 c 0,0 -0.735374,-0.214442 -1.544921,-0.623046 -0.810911,-0.408604 -1.550374,-1.06475 -1.671875,-1.365235 -0.247095,-0.613609 -0.09961,-1.016692 0.167968,-1.933593 0.267573,-0.918307 0.593845,-2.453094 -0.267578,-3.886719 -0.774051,-1.289 -1.977048,-2.037839 -2.966797,-2.574219 -0.989749,-0.536382 -1.845703,-0.826172 -1.845703,-0.826172 A 1.3653073,1.404279 0 0 0 39.488281,28.003906 1.3653073,1.404279 0 0 0 39.357422,28 a 1.3653073,1.404279 0 0 0 -0.0059,0 z M 32,34 a 3.0000002,3.0000002 0 0 0 -3,3 3.0000002,3.0000002 0 0 0 3,3 3.0000002,3.0000002 0 0 0 3,-3 3.0000002,3.0000002 0 0 0 -3,-3 z m 0,7.976562 c -1.6575,0 -3,1.3425 -3,3 0,1.6575 1.3425,3 3,3 1.0605,0 1.5,3 1.5,3 0,0 1.5,-5.403001 1.5,-6 0,-1.6575 -1.342499,-3 -3,-3 z"
       id="path7" /></g></svg>

<svg xmlns="http://www.w3.org/2000/svg" width="64" height="64" version="1.1">
 <path style="opacity:0.2" d="M 12.75,5 C 11.2265,5 10,6.2488 10,7.8 v 50.4 c 0,1.55008 1.2265,2.8 2.75,2.8 h 38.5 C 52.7724,61 54,59.75008 54,58.2 V 23 L 40,19 36,5 Z"/>
 <path style="fill:#989898" d="M 12.75,4 C 11.2265,4 10,5.2488 10,6.8 v 50.4 c 0,1.55008 1.2265,2.8 2.75,2.8 h 38.5 C 52.7724,60 54,58.75008 54,57.2 V 22 L 40,18 36,4 Z"/>
 <path style="opacity:0.2" d="M 54,23 36,5 V 20.1875 C 36,21.74675 37.2555,23 38.8125,23 Z"/>
 <path style="fill:#b7b7b7" d="M 54,22 36,4 V 19.1875 C 36,20.74675 37.2555,22 38.8125,22 Z"/>
 <path style="opacity:0.2;fill:#ffffff" d="M 12.75 4 C 11.2265 4 10 5.2495812 10 6.8007812 L 10 7.8007812 C 10 6.2495813 11.2265 5 12.75 5 L 36 5 L 36 4 L 12.75 4 z"/>
 <path style="opacity:0.2;fill-rule:evenodd" d="m 24.642578,29.002248 a 1.365308,1.4042805 0 0 0 -0.128906,0.0039 1.365308,1.4042805 0 0 0 -0.361328,0.07617 c 0,0 -0.854001,0.28979 -1.84375,0.826172 -0.991115,0.536382 -2.194697,1.285218 -2.96875,2.574219 -0.861423,1.433627 -0.535152,2.96841 -0.267578,3.886719 0.268938,0.916904 0.41643,1.319984 0.167968,1.933593 -0.120134,0.300486 -0.860376,0.956631 -1.669922,1.365235 -0.810911,0.408605 -1.546874,0.623046 -1.546874,0.623046 a 1.365308,1.4042805 0 0 0 -0.976563,1.72461 1.365308,1.4042805 0 0 0 0.976563,1.6875 c 0,0 0.735962,0.214442 1.546874,0.623047 0.809547,0.407201 1.549788,1.064749 1.669922,1.365234 0.248462,0.615013 0.10097,1.015286 -0.167968,1.933594 -0.267574,0.918307 -0.593845,2.451687 0.267578,3.886719 0.774053,1.287596 1.977635,2.037836 2.96875,2.574218 0.989749,0.534977 1.84375,0.826172 1.84375,0.826172 a 1.365308,1.4042805 0 1 0 0.859375,-2.664062 c 0,0 -0.649398,-0.222434 -1.431641,-0.646485 -0.782244,-0.422646 -1.619186,-1.077459 -1.914062,-1.570312 -0.334468,-0.557443 -0.225027,-0.74925 0.02344,-1.601563 0.249827,-0.852313 0.698107,-2.265137 0.07422,-3.8125 -0.551529,-1.37044 -1.653606,-2.097349 -2.640625,-2.621093 0.987019,-0.52234 2.089096,-1.2487 2.640625,-2.619141 0.623883,-1.547362 0.175603,-2.96214 -0.07422,-3.814453 -0.248461,-0.852314 -0.357902,-1.045524 -0.02344,-1.601563 0.294876,-0.492853 1.131818,-1.144309 1.914062,-1.568359 0.782243,-0.422646 1.431641,-0.646484 1.431641,-0.646484 a 1.365308,1.4042805 0 0 0 -0.369141,-2.744141 z m 14.708984,0 a 1.3653073,1.404279 0 0 0 -0.363281,2.744141 c 0,0 0.649399,0.223839 1.431641,0.646484 0.782243,0.424051 1.619775,1.075506 1.916016,1.568359 0.334466,0.556039 0.223067,0.74925 -0.02539,1.601563 -0.248461,0.852312 -0.696741,2.267093 -0.07422,3.814453 0.552894,1.37044 1.653607,2.096801 2.640625,2.619141 -0.987018,0.523744 -2.087731,1.250654 -2.640625,2.621093 -0.622518,1.547361 -0.174238,2.960188 0.07422,3.8125 0.248461,0.852312 0.35986,1.046073 0.02539,1.603516 -0.296242,0.492852 -1.133773,1.145713 -1.916016,1.568359 -0.782242,0.42405 -1.431641,0.646485 -1.431641,0.646485 a 1.3653073,1.404279 0 1 0 0.859375,2.664062 c 0,0 0.855954,-0.291195 1.845703,-0.826172 0.989749,-0.536381 2.192746,-1.286623 2.966797,-2.574218 0.861423,-1.435029 0.535151,-2.968413 0.267578,-3.886719 -0.267574,-0.918307 -0.415063,-1.318582 -0.167968,-1.933594 0.121501,-0.300486 0.860964,-0.958033 1.671875,-1.365234 0.809547,-0.408604 1.544922,-0.623047 1.544921,-0.623047 a 1.3653073,1.404279 0 0 0 0.976563,-1.6875 1.3653073,1.404279 0 0 0 -0.976563,-1.72461 c 0,0 -0.735374,-0.214442 -1.544921,-0.623046 -0.810911,-0.408604 -1.550374,-1.06475 -1.671875,-1.365235 -0.247095,-0.613609 -0.09961,-1.016692 0.167968,-1.933593 0.267573,-0.918307 0.593845,-2.453094 -0.267578,-3.886719 -0.774051,-1.289 -1.977048,-2.037839 -2.966797,-2.574219 -0.989749,-0.536382 -1.845703,-0.826172 -1.845703,-0.826172 a 1.3653073,1.404279 0 0 0 -0.359375,-0.07617 1.3653073,1.404279 0 0 0 -0.130859,-0.0039 1.3653073,1.404279 0 0 0 -0.0059,0 z m -7.351562,6 a 3.0000002,3.0000002 0 0 0 -3,3 3.0000002,3.0000002 0 0 0 3,3 3.0000002,3.0000002 0 0 0 3,-3 3.0000002,3.0000002 0 0 0 -3,-3 z m 0,7.976562 c -1.6575,0 -3,1.3425 -3,3 0,1.6575 1.3425,3 3,3 1.0605,0 1.5,3 1.5,3 0,0 1.5,-5.403001 1.5,-6 0,-1.6575 -1.342499,-3 -3,-3 z"/>
 <path style="fill-rule:evenodd;fill:#ffffff" d="M 24.642578 28 A 1.365308 1.4042805 0 0 0 24.513672 28.003906 A 1.365308 1.4042805 0 0 0 24.152344 28.080078 C 24.152344 28.080078 23.298343 28.369868 22.308594 28.90625 C 21.317479 29.442632 20.113897 30.191468 19.339844 31.480469 C 18.478421 32.914096 18.804692 34.448879 19.072266 35.367188 C 19.341204 36.284092 19.488696 36.687172 19.240234 37.300781 C 19.1201 37.601267 18.379858 38.257412 17.570312 38.666016 C 16.759401 39.074621 16.023438 39.289062 16.023438 39.289062 A 1.365308 1.4042805 0 0 0 15.046875 41.013672 A 1.365308 1.4042805 0 0 0 16.023438 42.701172 C 16.023438 42.701172 16.7594 42.915614 17.570312 43.324219 C 18.379859 43.73142 19.1201 44.388968 19.240234 44.689453 C 19.488696 45.304466 19.341204 45.704739 19.072266 46.623047 C 18.804692 47.541354 18.478421 49.074734 19.339844 50.509766 C 20.113897 51.797362 21.317479 52.547602 22.308594 53.083984 C 23.298343 53.618961 24.152344 53.910156 24.152344 53.910156 A 1.365308 1.4042805 0 1 0 25.011719 51.246094 C 25.011719 51.246094 24.362321 51.02366 23.580078 50.599609 C 22.797834 50.176963 21.960892 49.52215 21.666016 49.029297 C 21.331548 48.471854 21.440989 48.280047 21.689453 47.427734 C 21.93928 46.575421 22.38756 45.162597 21.763672 43.615234 C 21.212143 42.244794 20.110066 41.517885 19.123047 40.994141 C 20.110066 40.471801 21.212143 39.745441 21.763672 38.375 C 22.387555 36.827638 21.939275 35.41286 21.689453 34.560547 C 21.440992 33.708233 21.331551 33.515023 21.666016 32.958984 C 21.960892 32.466131 22.797834 31.814675 23.580078 31.390625 C 24.362321 30.967979 25.011719 30.744141 25.011719 30.744141 A 1.365308 1.4042805 0 0 0 24.642578 28 z M 39.351562 28 A 1.3653073 1.404279 0 0 0 38.988281 30.744141 C 38.988281 30.744141 39.63768 30.96798 40.419922 31.390625 C 41.202165 31.814676 42.039697 32.466131 42.335938 32.958984 C 42.670404 33.515023 42.559005 33.708234 42.310547 34.560547 C 42.062086 35.412859 41.613806 36.82764 42.236328 38.375 C 42.789222 39.74544 43.889935 40.471801 44.876953 40.994141 C 43.889935 41.517885 42.789222 42.244795 42.236328 43.615234 C 41.61381 45.162595 42.06209 46.575422 42.310547 47.427734 C 42.559008 48.280046 42.670407 48.473807 42.335938 49.03125 C 42.039696 49.524102 41.202165 50.176963 40.419922 50.599609 C 39.63768 51.023659 38.988281 51.246094 38.988281 51.246094 A 1.3653073 1.404279 0 1 0 39.847656 53.910156 C 39.847656 53.910156 40.70361 53.618961 41.693359 53.083984 C 42.683108 52.547603 43.886105 51.797361 44.660156 50.509766 C 45.521579 49.074737 45.195307 47.541353 44.927734 46.623047 C 44.66016 45.70474 44.512671 45.304465 44.759766 44.689453 C 44.881267 44.388967 45.62073 43.73142 46.431641 43.324219 C 47.241188 42.915615 47.976563 42.701172 47.976562 42.701172 A 1.3653073 1.404279 0 0 0 48.953125 41.013672 A 1.3653073 1.404279 0 0 0 47.976562 39.289062 C 47.976562 39.289062 47.241188 39.07462 46.431641 38.666016 C 45.62073 38.257412 44.881267 37.601266 44.759766 37.300781 C 44.512671 36.687172 44.660157 36.284089 44.927734 35.367188 C 45.195307 34.448881 45.521579 32.914094 44.660156 31.480469 C 43.886105 30.191469 42.683108 29.44263 41.693359 28.90625 C 40.70361 28.369868 39.847656 28.080078 39.847656 28.080078 A 1.3653073 1.404279 0 0 0 39.488281 28.003906 A 1.3653073 1.404279 0 0 0 39.357422 28 A 1.3653073 1.404279 0 0 0 39.351562 28 z M 32 34 A 3.0000002 3.0000002 0 0 0 29 37 A 3.0000002 3.0000002 0 0 0 32 40 A 3.0000002 3.0000002 0 0 0 35 37 A 3.0000002 3.0000002 0 0 0 32 34 z M 32 41.976562 C 30.3425 41.976562 29 43.319062 29 44.976562 C 29 46.634062 30.3425 47.976562 32 47.976562 C 33.0605 47.976562 33.5 50.976562 33.5 50.976562 C 33.5 50.976562 35 45.573561 35 44.976562 C 35 43.319062 33.657501 41.976562 32 41.976562 z"/>
</svg>
